X: 34854
T: Roast Gander And Tatties
R: jig
M: 6/8
K: Eminor
|:F|E2 B EBG|A^GA F>=GA|E2 B EBG|AFD E2 ^D|
E2 B EGB|A^GA F2 A|GF2 E FdB|AFD E2:|
A|B2 e ege|dBc dAF|Bee ege|faf g2 A|
Bee ege|dBc d2 F|GFE FdB|AFD GA^A|
BeB ege|d2 ^c dAF|B2 e ege|faf ga^a|
be/e/e e2 ^c|d^ce dAF|G2 E FdB|AFD G2||

